X: 4
T: When Sick Is It Tea That You Want?
R: jig
M: 6/8
L: 1/8
K: Dmaj
B|:Add dcB|ABA AFA|ABd ede|fdB ~B3|Add dcB|ABA AFA|ABd ede|1fdc d2B:|2fdc dfg|| |:afd dcd|BGF G2 a|bge e2d|cAA A2 G|FAd fdB|ABA AFA|ABd ede|1fdc dfg:|2fdc d2B||


Tune 427	Setting 29251

